X: 2
T: Snar \aa ta \aat
T: L\"att \aa' ta till
T: Quick to pick up
O: R\oros, Norway
S: Laurie Hart, workshop at Fiddle Hell 2015
R: pols
Z: 2015 John Chambers <jc:trillian.mit.edu>
M: 3/4
L: 1/8
K: D
"A"[|] D- |:\
D>F A2 (A>B) | (G<F) A3 A- | A>(d B<G) E>c |\
[1,3 (3(cBc) (d<B) A>F :|[2,4 (3(cBc) d3 :|
"B"|: (f |\
a)>(f g<e) f>d | (d>B) (B<G) G>G | A>(d B<G) E>c |\
[1,3 (3(cBc) e3 :|[2,4 (3(cBc) d3 :|
